icons/HSB-Collections/64x64/apps/chromium-dev.svg

<svg xmlns="http://www.w3.org/2000/svg" width="64" height="64" version="1">
 <circle style="opacity:.2" cx="32" cy="33" r="28"/>
 <path style="opacity:.1" d="m31.988333 59.969839c-15.503815 0-27.985666-12.481451-27.985666-27.985667 0-0.234677-0.006-0.466373 0-0.699631 0.3700156 15.176819 12.716048 27.285675 27.985666 27.285675 15.269019 0 27.615672-12.108656 27.985667-27.285675 0.006 0.233257 0 0.464954 0 0.699631 0 15.503816-12.481451 27.985667-27.985667 27.985667z"/>
 <path style="fill:#6199f6" d="m 8.6998295,16.504263 c -0.4817493,0.731944 -0.927343,1.516337 -1.37889,2.292941 -2.176126,4.060803 -3.3165937,8.59584 -3.3202729,13.202968 0,1.492569 -0.062702,2.997938 0.3417194,4.387238 1.5236721,5.234242 13.686727,7.478368 27.657947,7.478368 0.143265,-0.0041 0.286497,-0.0093 0.429683,-0.0156 L 45.68767,37.937602 c -1.062027,1.729879 -5.486734,3.944909 -7.374912,5.035096 -6.041928,3.488358 -18.335722,-3.800731 -17.202919,-4.808537 z"/>
 <path style="fill:#a2c2fa" d="m 32.031583,18.000339 c -0.03094,0 4.443979,1.995873 6.331957,3.085901 4.824814,2.785647 5.328398,12.734559 5.339778,16.76152 l 0.808584,0.468744 -0.824208,1.425765 c -6.4e-5,0.0014 0,0.0664 0,0.0664 l -0.312496,0.472656 -10.439557,3.101177 c 0.07422,0.0019 0.148519,0.0082 0.222654,0.0078 0.386969,-0.0063 0.773766,-0.02062 1.160142,-0.04296 0.224261,-0.0104 0.448167,-0.0116 0.671868,-0.02734 0.88216,-0.06512 1.760739,-0.172012 2.632781,-0.32031 0.05748,-0.0096 0.114458,-0.0213 0.171878,-0.03126 C 49.734972,40.864323 58.944953,39.765703 59.667481,36.312719 59.959454,34.917368 59.999749,33.463495 60,32.000173 59.987334,27.081414 58.679131,22.252785 56.207077,18.000339 Z"/>
 <path style="fill:#396bd7" d="m31.988615 4.0005059a27.999667 27.999667 0 0 0 -0.48437 0.01562 27.999667 27.999667 0 0 0 -1.484356 0.054687 27.999667 27.999667 0 0 0 -0.08204 0.01172 27.999667 27.999667 0 0 0 -2.53122 0.304684c-0.0857 0.01408-0.172278 0.024532-0.257809 0.039061-0.0052 0.000894-0.0104 0.00298-0.0156 0.0039a27.999667 27.999667 0 0 0 -2.62108 0.5898471 27.999667 27.999667 0 0 0 -5.210874 2.0273197 27.999667 27.999667 0 0 0 -0.621087 0.3554645 27.999667 27.999667 0 0 0 -10.913932 10.617061l11.378771 19.710702 0.238278 0.476558 0.05859 0.03516 0.53515 0.929677 4.910097 3.945265 1.363266-0.582025 1.562481 0.984364c-0.184895-0.340768-0.370224-0.849022-0.550772-1.417957l9.183484-3.925732-9.503792-16.464649c0.869413-2.005689 2.389615-3.412261 5.058533-3.710894h24.206744a27.999667 27.999667 0 0 0 -1.519514 -2.351534 27.999667 27.999667 0 0 0 -1.710917 -2.1406 27.999667 27.999667 0 0 0 -0.07422 -0.08594 27.999667 27.999667 0 0 0 -1.816382 -1.863255 27.999667 27.999667 0 0 0 -0.191404 -0.175779 27.999667 27.999667 0 0 0 -1.917947 -1.60545 27.999667 27.999667 0 0 0 -0.269526 -0.2031226 27.999667 27.999667 0 0 0 -1.980447 -1.3476404 27.999667 27.999667 0 0 0 -0.382807 -0.234372 27.999667 27.999667 0 0 0 -1.992165 -1.0859247 27.999667 27.999667 0 0 0 -0.566399 -0.269528 27.999667 27.999667 0 0 0 -1.914039 -0.8007716 27.999667 27.999667 0 0 0 -0.738273 -0.2734344 27.999667 27.999667 0 0 0 -1.843728 -0.5624933 27.999667 27.999667 0 0 0 -0.925769 -0.2382784 27.999667 27.999667 0 0 0 -1.722638 -0.3437459 27.999667 27.999667 0 0 0 -1.097643 -0.1640606 27.999667 27.999667 0 0 0 -1.570293 -0.1562482 27.999667 27.999667 0 0 0 -1.972633 -0.097655 27.999667 27.999667 0 0 0 -0.0118 0z"/>
 <path style="opacity:.2;fill:#ffffff" d="m32 4.0001605a27.999667 27.999667 0 0 0 -28 28 27.999667 27.999667 0 0 0 0.0175782 0.492188 27.999667 27.999667 0 0 1 27.982422 -27.492188 27.999667 27.999667 0 0 1 27.972656 27.5 27.999667 27.999667 0 0 0 0.02539 -0.5 27.999667 27.999667 0 0 0 -27.998046 -28z"/>
 <rect style="opacity:.2" width="28" height="28" x="-47" y="-46" rx="14" ry="14" transform="matrix(0,-1,-1,0,0,0)"/>
 <rect style="fill:#ffffff" width="28" height="28" x="-46" y="-46" rx="14" ry="14" transform="matrix(0,-1,-1,0,0,0)"/>
 <rect style="fill:#4688f4" width="22" height="22" x="-43" y="-43" rx="11" ry="11" transform="matrix(0,-1,-1,0,0,0)"/>
 <path style="fill:#315072" d="M 4.3164062 36 A 28 28 0 0 0 23.640625 58.71875 A 28.32302 28 0 0 0 23.982422 58.816406 A 28 28 0 0 0 29.167969 59.853516 A 28 28 0 0 0 29.205078 59.859375 C 29.207657 59.859652 29.21031 59.859105 29.212891 59.859375 A 28 28 0 0 0 31.90625 59.996094 C 31.93983 59.996242 31.974194 59.9998 32.007812 60 A 28 28 0 0 0 33.421875 59.949219 A 28.32302 28 0 0 0 33.539062 59.945312 C 33.76342 59.931889 33.98736 59.919204 34.210938 59.902344 A 28 28 0 0 0 36.759766 59.591797 A 28 28 0 0 0 59.677734 36 L 4.3164062 36 z"/>
 <path style="opacity:0.2" d="m 18.999594,41.000007 v 12 h 3.130859 c 1.846154,0 3.282574,-0.509698 4.310547,-1.529297 1.03846,-1.030807 1.558594,-2.559894 1.558594,-4.587891 0,-1.277301 -0.224732,-2.352617 -0.675781,-3.226562 -0.451049,-0.873943 -1.096387,-1.536198 -1.935547,-1.984375 -0.828671,-0.448175 -1.805357,-0.671875 -2.927734,-0.671875 z m 1.416016,0.994141 h 1.841796 c 1.353146,0 2.396593,0.374307 3.13086,1.125 0.744754,0.739493 1.117187,2.212222 1.117187,3.814453 0,3.182051 -1.522497,5.072265 -4.564453,5.072265 h -1.52539 z m 13.207031,3.005859 c -0.723428,0 -1.361897,0.164092 -1.912109,0.490234 -0.540024,0.326137 -0.961906,0.79022 -1.267579,1.394532 -0.295486,0.604312 -0.443359,1.327758 -0.443359,2.171875 0,0.863302 0.164183,1.586749 0.490234,2.171875 0.336241,0.585128 0.799656,1.028811 1.390625,1.326172 0.590968,0.297359 1.277938,0.445312 2.0625,0.445312 0.560396,0 1.043607,-0.04452 1.451172,-0.130859 0.407566,-0.07672 0.820529,-0.19844 1.238281,-0.371094 v -1.109375 c -0.427942,0.172659 -0.84439,0.306425 -1.251953,0.402344 -0.397376,0.08634 -0.857309,0.130859 -1.376953,0.130859 -0.815129,0 -1.451647,-0.226897 -1.910156,-0.677734 -0.444335,-0.456331 -0.675259,-1.377964 -0.699219,-2.244141 h 0.0059 5.599569 v -0.517578 c 0,-0.700236 -0.137002,-1.310143 -0.412109,-1.828125 -0.264915,-0.527571 -0.652654,-0.934888 -1.16211,-1.222656 -0.509455,-0.287766 -1.109872,-0.431641 -1.802734,-0.431641 z m 4.769531,0 2.998047,8 h 1.490234 l 3.011719,-8 h -1.386719 l -1.683593,4.716797 c -0.07874,0.218904 -0.16142,0.461815 -0.25,0.730469 -0.08859,0.258706 -0.173217,0.518639 -0.251954,0.777343 -0.07873,0.248755 -0.132576,0.452126 -0.162109,0.611329 h -0.05859 c -0.02953,-0.159203 -0.07954,-0.362574 -0.148437,-0.611329 -0.06889,-0.248754 -0.147735,-0.508686 -0.236328,-0.777343 -0.08859,-0.268654 -0.171264,-0.511565 -0.25,-0.730469 l -1.683598,-4.716797 z m -4.785156,1.037109 c 0.68267,0 1.182183,0.204721 1.498047,0.617188 0.214134,0.27312 0.468618,0.764809 0.404297,1.345703 h -3.953125 c 0.002,-0.603886 0.268459,-1.11033 0.521484,-1.375 0.376996,-0.393283 0.887382,-0.587891 1.529297,-0.587891 z"/>
 <path style="fill:#ffffff" d="m 27.999594,45.882364 c 0,2.027997 -0.51923,3.557399 -1.55769,4.588206 -1.027973,1.019599 -2.465036,1.529399 -4.31119,1.529399 h -3.13112 V 40.00005 h 3.461539 c 1.122377,0 2.097902,0.224088 2.926573,0.672263 0.83916,0.448177 1.484265,1.109238 1.935314,1.983181 0.451049,0.873945 0.676574,1.949568 0.676574,3.22687 z m -1.494757,0.0504 c 0,-1.602231 -0.372377,-3.073244 -1.117131,-3.812737 -0.734267,-0.750693 -1.777974,-1.12604 -3.13112,-1.12604 h -1.840905 v 10.01202 h 1.526222 c 3.041956,0 4.562934,-1.891192 4.562934,-5.073243 z"/>
 <path style="fill:#ffffff" d="m 33.622641,44.000007 c -0.723428,0 -1.361897,0.164092 -1.912109,0.490234 -0.540023,0.326137 -0.961906,0.79022 -1.267579,1.394532 -0.295486,0.604312 -0.443359,1.327758 -0.443359,2.171875 0,0.863302 0.164183,1.586749 0.490234,2.171875 0.336241,0.585128 0.799656,1.028812 1.390625,1.326172 0.590968,0.297359 1.277938,0.445312 2.0625,0.445312 0.560396,0 1.043607,-0.04452 1.451172,-0.130859 0.407566,-0.07672 0.820529,-0.19844 1.238281,-0.371094 v -1.109375 c -0.427943,0.172659 -0.84439,0.306425 -1.251953,0.402344 -0.397376,0.08634 -0.857309,0.130859 -1.376953,0.130859 -0.815129,0 -1.451647,-0.226897 -1.910156,-0.677734 -0.444335,-0.456331 -0.675259,-1.377964 -0.699219,-2.244141 h 0.0059 5.599569 v -0.517578 c 0,-0.700236 -0.137002,-1.310143 -0.412109,-1.828125 -0.264915,-0.527571 -0.652654,-0.934888 -1.16211,-1.222656 -0.509455,-0.287766 -1.109872,-0.431641 -1.802734,-0.431641 z m -0.01563,1.037109 c 0.68267,0 1.182183,0.204721 1.498047,0.617188 0.214134,0.27312 0.468618,0.764809 0.404297,1.345703 H 31.55623 c 0.002,-0.603886 0.268459,-1.11033 0.521484,-1.375 0.376996,-0.393283 0.887382,-0.587891 1.529297,-0.587891 z"/>
 <path style="fill:#ffffff" d="M 41.389981,51.999969 38.39293,44.000023 h 1.387794 l 1.683077,4.716386 q 0.118105,0.328356 0.250986,0.731337 0.13289,0.402986 0.236218,0.776117 0.103339,0.373132 0.147636,0.611936 h 0.05904 q 0.0443,-0.238804 0.162401,-0.611936 0.118105,-0.388057 0.250984,-0.776117 0.132871,-0.402981 0.250986,-0.731337 l 1.683075,-4.716386 h 1.3878 l -3.011819,7.999946 z"/>
</svg>

<svg xmlns="http://www.w3.org/2000/svg" width="64" height="64" version="1">
 <circle style="opacity:0.2" cx="32" cy="33" r="28"/>
 <path style="fill:#6199f6" d="M 8.7,16.504 C 8.218,17.236 7.773,18.02 7.321,18.797 5.145,22.858 4.0046,27.393 4.001,32 4.001,47.464 16.536,58 32,58 L 45.689,37.937 C 44.627,39.667 40.202,41.882 38.314,42.972 32.272,46.46 24.599,44.206 21.111,38.163 L 8.701,16.503 Z"/>
 <path style="fill:#396bd7" d="M 19.145,37.731 7.766,18.02 C 11.864,10.926 18.414,6.714 24.512,5.02 27.31,4.248 29.502,4.059 32,4 35.325,4 46.87,4.822 54.688,15.649 55.233,16.407 55.74,17.192 56.207,18 H 32 C 29.331,18.299 27.811,19.706 26.942,21.711 L 36.446,38.176 24.887,43.117"/>
 <path style="fill:#a2c2fa" d="M 43.375,40.281 32,58 C 32.075,58.002 32.149,58.008 32.223,58.008 46.411,57.788 59.998,48.564 60,32 59.987,27.081 58.679,22.253 56.207,18 H 32.032 C 32.001,18 36.476,19.996 38.364,21.086 43.188,23.872 43.692,33.821 43.703,37.848 L 44.512,38.317"/>
 <path style="opacity:0.2;fill:#ffffff" d="M 32,4 A 28,28 0 0 0 4,32 28,28 0 0 0 4.0352,32.5 28,28 0 0 1 32,5 28,28 0 0 1 59.982,32.252 28,28 0 0 0 60,32 28,28 0 0 0 32,4 Z"/>
 <circle style="opacity:0.2" cx="32" cy="33" r="14"/>
 <circle style="fill:#ffffff" cx="32" cy="32" r="14"/>
 <circle style="fill:#4688f4" cx="32" cy="32" r="11"/>
 <path style="fill:#315072" d="M 4.2891,36 A 28,28 0 0 0 32,60 28,28 0 0 0 59.711,36 Z"/>
 <path style="opacity:0.2" d="M 19,41 V 53 H 22.13 C 23.977,53 25.413,52.49 26.441,51.471 27.479,50.44 28,48.911 28,46.883 28,45.606 27.775,44.53 27.324,43.656 26.873,42.782 26.227,42.12 25.388,41.672 24.56,41.224 23.583,41 22.461,41 Z M 20.416,41.994 H 22.257 C 23.611,41.994 24.654,42.368 25.388,43.119 26.133,43.859 26.505,45.331 26.505,46.934 26.505,50.116 24.983,52.006 21.941,52.006 H 20.416 Z M 33.623,45 C 32.899,45 32.261,45.164 31.711,45.49 31.171,45.816 30.749,46.28 30.443,46.885 30.147,47.489 30,48.213 30,49.057 30,49.92 30.164,50.643 30.49,51.229 30.826,51.814 31.289,52.257 31.88,52.555 32.471,52.852 33.158,53 33.943,53 34.503,53 34.987,52.955 35.394,52.869 35.802,52.792 36.215,52.671 36.632,52.498 V 51.389 C 36.204,51.561 35.788,51.695 35.38,51.791 34.983,51.877 34.523,51.922 34.004,51.922 33.188,51.922 32.552,51.695 32.093,51.244 31.649,50.788 31.418,49.866 31.394,49 H 37 V 48.482 C 37,47.782 36.863,47.172 36.587,46.654 36.323,46.127 35.935,45.719 35.425,45.432 34.916,45.144 34.316,45 33.623,45 Z M 38.392,45 41.39,53 H 42.88 L 45.892,45 H 44.505 L 42.822,49.717 42.158,51.836 H 42.099 L 41.464,49.717 39.781,45 Z M 33.607,46.037 C 34.29,46.037 34.789,46.242 35.105,46.654 35.319,46.927 35.574,47.419 35.509,48 H 31.556 C 31.558,47.396 31.825,46.89 32.078,46.625 32.455,46.232 32.965,46.037 33.607,46.037 Z"/>
 <path style="fill:#ffffff" d="M 41.39,52 38.393,44 H 39.781 L 41.464,48.716 42.099,50.836 H 42.158 L 42.822,48.716 44.505,44 H 45.893 L 42.881,52 Z M 33.623,44 C 32.899,44 32.261,44.164 31.711,44.49 31.171,44.816 30.749,45.28 30.443,45.885 30.147,46.489 30,47.213 30,48.057 30,48.92 30.164,49.643 30.49,50.229 30.826,50.814 31.289,51.257 31.88,51.555 32.471,51.852 33.158,52 33.943,52 34.503,52 34.987,51.955 35.394,51.869 35.802,51.792 36.215,51.671 36.632,51.498 V 50.389 C 36.204,50.561 35.788,50.695 35.38,50.791 34.983,50.877 34.523,50.922 34.004,50.922 33.188,50.922 32.552,50.695 32.093,50.244 31.649,49.788 31.418,48.866 31.394,48 H 37 V 47.482 C 37,46.782 36.863,46.172 36.587,45.654 36.323,45.127 35.935,44.719 35.425,44.432 34.916,44.144 34.316,44 33.623,44 Z M 33.607,45.037 C 34.29,45.037 34.789,45.242 35.105,45.654 35.319,45.927 35.574,46.419 35.509,47 H 31.556 C 31.558,46.396 31.825,45.89 32.078,45.625 32.455,45.232 32.965,45.037 33.607,45.037 Z M 28,45.882 C 28,47.91 27.48,49.44 26.442,50.471 25.414,51.49 23.977,52 22.131,52 H 19 V 40 H 22.461 C 23.584,40 24.559,40.224 25.388,40.672 26.227,41.12 26.872,41.782 27.323,42.655 27.774,43.529 28,44.605 28,45.882 Z M 26.505,45.933 C 26.505,44.331 26.132,42.86 25.388,42.12 24.653,41.369 23.61,40.994 22.257,40.994 H 20.416 V 51.006 H 21.942 C 24.984,51.006 26.505,49.115 26.505,45.933 Z"/>
</svg>
